X:1
T: Hurricane, The
R: reel
C: Rick Gagne
N: 1992 on whistle
M: 4/4
Q: 1/4=175
K: Edor
GA | "Em"BEGA BE~E2 | BEGB "Bm"dF~F2 | "Em"BedB ABGB | "D"AFDF "C"GEFD |
[1 "Em"BEGA BE~E2 | BEGB "Bm"dF~F2 | "G"BedB "Bm"ABGB | "D"AFDF "Em"E2 :|
[2 "G"BGFd "Em"BGEF | "D"DdAF "Em"eBGA | "Bm"FfdB "Em"geBa | "D"fdbg "Em"e2de ||
"Bm"fBde fB~B2 | fBaB gBfB | "A"ecAc efg/f/e | "D"fed/e/f "A"ecAc |
"Bm"fBde fB~B2 | fBaB gBfB | "A"ecAc egfe |1 "Bm"d/c/BAF "Em"B2de :|\
[2 "Bm"d/c/BAF "Em"B2 ||
